src/account-filled.svg

<svg xmlns="http://www.w3.org/2000/svg" class="dibsvg-svg dibsvg-account-filled" viewBox="0 0 500 500">
    <path d="M278.088764,500 C190.723711,500 100.959616,499.78903 11.3954418,499.367089 L0,499.367089 L0.799680128,487.552743 C1.19952019,480.801688 4.9980008,421.940928 14.3942423,399.78903 C15.9936026,395.780591 26.1895242,370.886076 51.9792083,361.181435 L130.747701,327.637131 L163.934426,312.236287 C164.534186,312.025316 179.128349,305.696203 183.126749,287.341772 C183.526589,284.599156 183.326669,280.801688 182.926829,279.746835 C181.127549,276.160338 181.127549,276.160338 176.729308,270.886076 L176.529388,270.675105 C175.129948,268.987342 143.942423,229.957806 136.745302,173.628692 C136.345462,170.886076 132.546981,144.092827 136.145542,112.447257 C141.143543,67.5105485 158.336665,34.3881857 186.12555,16.6666667 C187.32507,15.8227848 213.714514,0 251.09956,0 C272.890844,0 294.082367,5.48523207 314.07437,16.0337553 C321.271491,19.4092827 381.847261,51.0548523 365.253898,175.316456 C364.854058,179.324895 358.656537,228.691983 325.669732,270.675105 C324.870052,271.518987 324.070372,272.57384 323.070772,273.839662 C321.471411,275.738397 319.272291,278.059072 318.072771,280.168776 C317.872851,281.223629 317.473011,283.966245 318.472611,287.130802 L318.672531,287.763713 L318.872451,288.607595 C319.072371,289.029536 322.271092,304.219409 341.463415,313.080169 L384.446222,333.544304 L447.820872,360.337553 C449.220312,360.970464 487.005198,376.793249 495.001999,429.324895 L495.201919,430.379747 L500,499.578059 L488.604558,499.578059 C487.604958,499.367089 407.836865,500 278.088764,500 L278.088764,500 Z"/>
</svg>

<svg xmlns="http://www.w3.org/2000/svg" class="dibsvg-svg dibsvg-account-filled" viewBox="0 0 500 500">
    <path d="M278.089 500c-87.365 0-177.13-.211-266.694-.633H0l.8-11.814c.4-6.751 4.198-65.612 13.594-87.764 1.6-4.008 11.796-28.903 37.585-38.608l78.769-33.544 33.186-15.4c.6-.212 15.194-6.54 19.193-24.895.4-2.743.2-6.54-.2-7.595-1.8-3.587-1.8-3.587-6.198-8.86l-.2-.212c-1.4-1.688-32.587-40.717-39.784-97.046-.4-2.743-4.198-29.536-.6-61.182 4.999-44.936 22.192-78.059 49.98-95.78C187.326 15.823 213.716 0 251.1 0c21.79 0 42.982 5.485 62.974 16.034 7.197 3.375 67.773 35.02 51.18 159.282-.4 4.009-6.597 53.376-39.584 95.36-.8.843-1.6 1.898-2.6 3.164-1.599 1.898-3.798 4.22-4.997 6.329-.2 1.055-.6 3.797.4 6.962l.2.633.2.844c.2.422 3.398 15.611 22.59 24.472l42.983 20.464 63.375 26.794c1.4.632 39.184 16.455 47.181 68.987l.2 1.055L500 499.578h-11.395c-1-.21-80.768.422-210.516.422z"/>
</svg>
